static/icons/trashbin-fully-open.svg

<?xml version="1.0" encoding="UTF-8" standalone="no"?>
<!DOCTYPE svg PUBLIC "-//W3C//DTD SVG 1.1//EN" "http://www.w3.org/Graphics/SVG/1.1/DTD/svg11.dtd">
<svg version="1.1" xmlns="http://www.w3.org/2000/svg" xmlns:xlink="http://www.w3.org/1999/xlink" preserveAspectRatio="xMidYMid meet" viewBox="0 0 703 651" width="703" height="651"><defs><path d="M527.79 205.39L526.49 222.19L525.23 238.61L524 254.65L522.8 270.33L521.63 285.63L520.5 300.56L519.39 315.11L518.31 329.29L517.27 343.1L516.26 356.54L515.27 369.6L514.32 382.29L513.4 394.61L512.51 406.55L511.65 418.12L510.82 429.32L510.02 440.14L509.25 450.6L508.52 460.67L507.81 470.38L507.14 479.71L506.49 488.67L505.88 497.26L505.3 505.47L504.75 513.31L504.23 520.78L503.74 527.87L503.28 534.6L502.86 540.94L502.46 546.92L502.09 552.52L501.76 557.75L501.45 562.61L501.18 567.09L500.94 571.2L500.73 574.94L500.55 578.3L500.4 581.29L500.28 583.91L500.16 586.31L500 588.66L499.8 590.95L499.56 593.17L499.28 595.34L498.97 597.46L498.61 599.51L498.22 601.51L497.79 603.45L497.32 605.33L496.81 607.15L496.27 608.91L495.68 610.62L495.06 612.27L494.39 613.86L493.69 615.39L492.95 616.86L492.17 618.28L491.36 619.64L490.5 620.94L489.61 622.18L488.67 623.36L487.7 624.49L486.69 625.56L485.64 626.57L484.55 627.52L483.43 628.41L482.26 629.25L481.06 630.03L479.82 630.75L478.54 631.41L477.22 632.01L475.86 632.56L474.46 633.05L473.03 633.48L471.56 633.85L470.04 634.16L468.49 634.42L466.9 634.61L465.28 634.75L146.44 634.75L144.82 634.61L143.23 634.42L141.68 634.16L140.16 633.85L138.69 633.48L137.26 633.05L135.86 632.56L134.5 632.01L133.18 631.41L131.9 630.75L130.66 630.03L129.46 629.25L128.29 628.41L127.17 627.52L126.08 626.57L125.03 625.56L124.02 624.49L123.05 623.36L122.11 622.18L121.22 620.94L120.36 619.64L119.55 618.28L118.77 616.86L118.03 615.39L117.33 613.86L116.66 612.27L116.04 610.62L115.45 608.91L114.91 607.15L114.4 605.33L113.93 603.45L113.5 601.51L113.11 599.51L112.75 597.46L112.44 595.34L112.16 593.17L111.92 590.95L111.72 588.66L111.56 586.31L111.44 583.91L111.32 581.29L111.17 578.3L110.99 574.94L110.78 571.2L110.54 567.09L110.27 562.61L109.96 557.75L109.63 552.52L109.26 546.92L108.87 540.94L108.44 534.6L107.98 527.87L107.49 520.78L106.97 513.31L106.42 505.47L105.84 497.26L105.23 488.67L104.58 479.71L103.91 470.38L103.2 460.67L102.47 450.6L101.7 440.14L100.9 429.32L100.07 418.12L99.21 406.55L98.32 394.61L97.4 382.29L96.45 369.6L95.47 356.54L94.45 343.1L93.41 329.29L92.33 315.11L91.22 300.56L90.09 285.63L88.92 270.33L87.72 254.65L86.49 238.61L85.23 222.19L83.93 205.39L82.61 188.23L529.11 188.23L527.79 205.39ZM201.24 549.99L232.13 549.99L217.72 235.56L186.83 235.56L201.24 549.99ZM383.96 549.99L414.85 549.99L429.27 235.56L398.38 235.56L383.96 549.99ZM293.57 549.99L326.51 549.99L326.51 235.56L293.57 235.56L293.57 549.99Z" id="a2zSwrHOtJ"></path><path d="M612.55 248.04L613.03 247.97L613.52 247.92L614 247.87L614.49 247.82L614.98 247.78L615.47 247.74L615.95 247.71L616.44 247.68L616.93 247.66L617.42 247.64L617.9 247.63L618.39 247.62L618.88 247.62L619.37 247.62L619.86 247.63L620.34 247.64L620.83 247.66L621.32 247.68L621.8 247.7L622.29 247.74L622.78 247.77L623.26 247.81L623.75 247.86L624.23 247.91L624.72 247.96L625.2 248.02L625.68 248.09L626.17 248.16L626.65 248.23L627.13 248.31L627.61 248.39L628.09 248.48L628.57 248.58L629.05 248.67L629.53 248.78L630.01 248.89L630.48 249L630.96 249.12L631.43 249.24L631.9 249.37L633.71 249.88L635.47 250.43L637.19 251.02L638.88 251.63L640.52 252.28L642.12 252.97L643.68 253.68L645.19 254.44L646.67 255.22L648.11 256.04L649.5 256.89L650.86 257.77L652.17 258.69L653.45 259.64L654.68 260.63L655.87 261.65L657.02 262.7L658.13 263.79L659.2 264.91L660.23 266.06L661.22 267.24L662.17 268.46L663.07 269.72L663.94 271L664.76 272.32L665.55 273.68L666.29 275.06L666.99 276.49L667.65 277.94L668.27 279.43L668.85 280.95L669.39 282.5L669.89 284.09L670.35 285.71L670.76 287.37L671.14 289.05L671.47 290.78L671.77 292.53L672.02 294.32L672.23 296.14L672.46 298.31L672.7 300.53L672.94 302.81L673.2 305.15L673.46 307.53L673.74 309.97L674.02 312.47L674.31 315.02L674.61 317.63L674.93 320.29L675.24 323.01L675.57 325.78L675.91 328.6L676.26 331.48L676.62 334.42L676.98 337.41L677.36 340.45L677.74 343.55L678.13 346.71L678.53 349.92L678.95 353.18L679.37 356.5L679.8 359.87L680.24 363.3L680.31 363.85L680.38 364.39L680.84 367.82L681.29 371.19L681.74 374.51L682.18 377.76L682.62 380.97L683.05 384.12L683.48 387.21L683.9 390.25L684.32 393.23L684.73 396.16L685.14 399.03L685.54 401.85L685.94 404.61L686.33 407.32L686.71 409.97L687.09 412.57L687.47 415.11L687.84 417.59L688.2 420.02L688.56 422.4L688.91 424.72L689.26 426.98L689.61 429.19L689.94 431.35L690.21 433.16L690.43 434.95L690.59 436.73L690.71 438.48L690.79 440.2L690.81 441.91L690.79 443.6L690.71 445.26L690.59 446.9L690.42 448.52L690.21 450.12L689.94 451.69L689.63 453.24L689.27 454.78L688.86 456.29L688.41 457.77L687.9 459.24L687.35 460.68L686.75 462.11L686.1 463.51L685.4 464.89L684.66 466.24L683.86 467.58L683.02 468.89L682.13 470.18L681.2 471.45L680.21 472.7L679.18 473.93L678.09 475.13L676.97 476.31L675.79 477.47L674.56 478.61L673.29 479.73L671.97 480.82L670.6 481.9L669.18 482.95L667.71 483.98L666.2 484.98L664.64 485.97L663.03 486.93L662.6 487.18L662.17 487.42L661.75 487.65L661.32 487.89L660.88 488.11L660.45 488.34L660.01 488.55L659.57 488.77L659.13 488.98L658.69 489.18L658.24 489.38L657.79 489.58L657.35 489.77L656.9 489.96L656.44 490.14L655.99 490.32L655.53 490.49L655.08 490.66L654.62 490.82L654.16 490.98L653.7 491.14L653.23 491.29L652.77 491.44L652.3 491.58L651.83 491.71L651.36 491.85L650.89 491.97L650.42 492.1L649.95 492.22L649.47 492.33L649 492.44L648.52 492.54L648.04 492.64L647.56 492.74L647.08 492.83L646.6 492.91L646.12 492.99L645.63 493.07L645.15 493.14L644.66 493.2L606.19 498.24L623.26 628.55L575.88 634.75L548.01 422.07L548.01 422.07L547.75 420.02L547.43 417.59L547.36 417.04L547.2 415.86L547.1 415.11L546.81 412.85L546.18 408.06L546.08 407.32L544.24 393.23L543.85 390.25L543.66 388.83L543.45 387.21L542.67 381.26L542.63 380.97L541.71 373.91L541.24 370.32L540.77 366.78L540.46 364.39L540.32 363.3L539.87 359.87L539.42 356.5L539.07 353.79L538.59 350.14L538.56 349.92L509.62 128.98L557 122.77L574.07 253.08L612.55 248.04ZM630 462.04L630.25 462.03L630.51 462.01L630.77 461.99L631.03 461.97L631.3 461.95L631.57 461.93L631.85 461.91L632.13 461.89L632.41 461.86L632.7 461.84L632.99 461.81L633.29 461.78L633.59 461.76L633.9 461.73L634.21 461.7L634.52 461.67L634.84 461.64L635.16 461.6L635.49 461.57L635.82 461.54L636.15 461.5L636.49 461.46L636.84 461.43L637.19 461.39L637.54 461.35L637.89 461.31L638.25 461.27L638.62 461.23L638.99 461.18L639.36 461.14L639.74 461.09L640.12 461.05L640.51 461L640.9 460.95L641.29 460.91L641.69 460.86L642.09 460.8L642.5 460.75L642.91 460.7L643.33 460.65L643.96 460.55L644.58 460.42L645.21 460.25L645.83 460.05L646.45 459.82L647.07 459.55L647.68 459.25L648.29 458.92L648.89 458.57L649.48 458.18L650.06 457.76L650.63 457.31L651.19 456.84L651.74 456.34L652.27 455.81L652.8 455.25L653.3 454.67L653.79 454.06L654.27 453.43L654.72 452.77L655.16 452.09L655.57 451.39L655.97 450.66L656.34 449.92L656.69 449.15L657.02 448.36L657.32 447.55L657.59 446.72L657.84 445.87L658.06 445.01L658.25 444.12L658.41 443.22L658.54 442.31L658.64 441.37L658.71 440.42L658.74 439.46L658.73 438.48L658.69 437.49L658.62 436.48L658.5 435.46L654.91 408.07L654.91 408.06L654.82 407.32L653.73 399.03L653.41 396.61L653.35 396.16L652.58 390.25L652.39 388.83L652.18 387.21L651.4 381.26L651.36 380.97L650.44 373.91L649.97 370.32L649.5 366.78L649.19 364.39L649.05 363.3L648.6 359.87L648.16 356.5L647.8 353.79L647.32 350.14L647.3 349.92L646.06 340.45L645.85 338.87L645.66 337.41L645.4 335.46L645.34 335L645.27 334.42L644.83 331.08L640.79 300.26L640.64 299.25L640.45 298.26L640.24 297.29L639.99 296.34L639.71 295.42L639.4 294.52L639.07 293.64L638.71 292.79L638.32 291.96L637.91 291.15L637.47 290.37L637.01 289.62L636.53 288.89L636.03 288.19L635.52 287.51L634.98 286.85L634.43 286.23L633.86 285.63L633.27 285.06L632.68 284.51L632.07 284L631.45 283.51L630.82 283.05L630.18 282.62L629.53 282.21L628.88 281.84L628.22 281.49L627.56 281.18L626.89 280.89L626.22 280.64L625.55 280.42L624.88 280.22L624.21 280.06L623.54 279.93L622.88 279.84L622.22 279.77L621.56 279.74L620.91 279.74L620.27 279.77L619.64 279.84L619.23 279.89L618.82 279.95L618.41 280L618.01 280.06L617.61 280.11L617.21 280.17L616.82 280.22L616.44 280.28L616.06 280.33L615.68 280.38L615.31 280.44L614.94 280.49L614.58 280.55L614.22 280.6L613.87 280.65L613.51 280.7L613.17 280.76L612.83 280.81L612.49 280.86L612.16 280.91L611.83 280.97L611.5 281.02L611.18 281.07L610.87 281.12L610.56 281.17L610.25 281.22L609.95 281.27L609.65 281.33L609.35 281.38L609.06 281.43L608.78 281.48L608.5 281.53L608.22 281.58L607.95 281.63L607.68 281.68L607.42 281.73L607.16 281.78L606.9 281.82L606.65 281.87L606.41 281.92L578.33 285.6L584.86 335.46L584.86 335.46L585.31 338.87L585.52 340.45L586.76 349.92L586.79 350.14L587.26 353.79L587.62 356.5L587.74 357.38L588.97 366.78L589.43 370.32L589.9 373.91L590.83 380.97L591.24 384.12L591.64 387.21L593.19 399.03L594.28 407.32L594.63 409.97L595 412.85L595.3 415.11L595.4 415.86L595.4 415.86L601.93 465.72L630 462.04Z" id="c2YPbwoH8"></path></defs><g><g><g><use xlink:href="#a2zSwrHOtJ" opacity="1" class="trashbin-body" fill-opacity="1"></use><g><use xlink:href="#a2zSwrHOtJ" opacity="1" fill-opacity="0" stroke="#000000" stroke-width="0" stroke-opacity="1"></use></g></g><g><use xlink:href="#c2YPbwoH8" opacity="1" class="trashbin-body" fill-opacity="1"></use><g><use xlink:href="#c2YPbwoH8" opacity="1" fill-opacity="0" stroke="#ff0000" stroke-width="0" stroke-opacity="1"></use></g></g></g></g></svg>

<svg xmlns="http://www.w3.org/2000/svg" xmlns:xlink="http://www.w3.org/1999/xlink" preserveAspectRatio="xMidYMid slice" viewBox="0 0 703 651">
  <defs>
    <path d="M527.8 205.4l-1.3 16.8-1.3 16.4-1.2 16-1.2 15.7-1.2 15.3-1.1 15-1.1 14.5-1 14.2-1.1 13.8-1 13.4-1 13.1-1 12.7-.9 12.3-.9 12-.9 11.5-.8 11.2-.8 10.8-.8 10.5-.7 10-.7 9.8-.7 9.3-.6 9-.6 8.6-.6 8.2-.6 7.8-.5 7.5-.5 7-.4 6.8-.4 6.3-.4 6-.4 5.6-.3 5.3-.4 4.8-.2 4.5-.3 4.1-.2 3.7-.1 3.4-.2 3-.1 2.6-.1 2.4-.2 2.4-.2 2.3-.2 2.2-.3 2.1-.3 2.2-.4 2-.4 2-.4 2-.5 1.8-.5 1.9-.5 1.7-.6 1.7-.6 1.7-.7 1.6-.7 1.5-.8 1.5-.7 1.4-.8 1.3-.9 1.3-.9 1.3-1 1.2-.9 1-1 1.2-1 1-1.1 1-1.2.8-1.1.9-1.2.7-1.3.8-1.3.6-1.3.6-1.3.6-1.4.4-1.5.5-1.4.4-1.6.3-1.5.2-1.6.2-1.6.1H144.8l-1.6-.3-1.5-.2-1.5-.4-1.5-.3-1.4-.5-1.4-.4-1.4-.6-1.3-.6-1.3-.6-1.2-.8-1.2-.8-1.2-.8-1.1-.9-1.1-1-1-1-1-1-1-1.1-1-1.2-.9-1.3-.8-1.3-.9-1.3-.7-1.4-.8-1.5-.7-1.5-.6-1.6-.7-1.7-.5-1.7-.6-1.8-.5-1.8-.5-1.8-.4-2-.4-2-.3-2-.4-2.2-.2-2.1-.3-2.3-.2-2.2-.1-2.4-.2-2.4v-2.6l-.2-3-.2-3.4-.2-3.7-.3-4.1-.2-4.5-.3-4.9-.4-5.2-.3-5.6-.4-6-.5-6.3-.4-6.7-.5-7.1-.5-7.5-.6-7.8-.6-8.2-.6-8.6-.6-9-.7-9.3-.7-9.7-.7-10.1-.8-10.5-.8-10.8-.8-11.2-.9-11.6-.9-11.9-.9-12.3-1-12.7-1-13-1-13.5-1-13.8-1-14.2-1.2-14.5-1.1-15-1.2-15.3-1.2-15.7-1.2-16-1.3-16.4-1.3-16.8-1.3-17.2h446.5l-1.3 17.2zM201.2 550h31l-14.5-314.4h-30.9L201.2 550zm182.8 0h30.9l14.4-314.4h-31L384 550zm-90.4 0h33V235.6h-33V550z" id="a"/>
    <path d="M612.5 248h1l.5-.1h.5l.5-.1h1l.4-.1h6.4l.5.1h.5l.4.1h.5l.5.1h.5l.5.2h.4l.5.1h.5l.5.2h.5l.4.2h.5l.5.2.5.1.5.1.4.1.5.2 1.8.5 1.8.5 1.7.6 1.7.6 1.6.7 1.6.7 1.6.7 1.5.7 1.5.8 1.4.8 1.4.9 1.4.9 1.3.9 1.3 1 1.2 1 1.2 1 1.1 1 1.1 1 1.1 1.2 1 1.2 1 1.1 1 1.3.9 1.2.8 1.3.9 1.3.8 1.4.7 1.4.7 1.4.6 1.4.7 1.5.6 1.6.5 1.5.5 1.6.5 1.6.4 1.7.3 1.7.4 1.7.3 1.7.2 1.8.2 1.8.3 2.2.2 2.2.2 2.3.3 2.3.3 2.4.2 2.5.3 2.5.3 2.5.3 2.6.3 2.7.3 2.7.4 2.8.3 2.8.4 2.9.3 3 .4 3 .4 3 .3 3 .4 3.2.4 3.2.5 3.3.4 3.3.4 3.4.4 3.4.1.6v.5l.5 3.4.5 3.4.4 3.3.5 3.3.4 3.2.4 3.1.5 3.1.4 3 .4 3 .4 3 .4 2.8.4 2.9.4 2.7.4 2.7.4 2.7.4 2.6.4 2.5.3 2.5.4 2.4.4 2.4.3 2.3.4 2.3.3 2.2.3 2.2.3 1.8.2 1.8.2 1.7.1 1.8v1.7l.1 1.7v3.4l-.2 1.6-.2 1.6-.2 1.6-.3 1.6-.3 1.5-.3 1.6-.4 1.5-.5 1.5-.5 1.4-.5 1.5-.6 1.4-.7 1.4-.7 1.4-.7 1.3-.8 1.4-.9 1.3-.9 1.3-.9 1.3-1 1.2-1 1.2-1.1 1.2-1.1 1.2-1.2 1.2-1.2 1.1-1.3 1.1-1.3 1.1-1.4 1.1-1.4 1-1.5 1-1.5 1-1.6 1-1.6 1-.4.3-.4.2-.5.3-.4.2-.4.2-.4.2-.5.3-.4.2-.5.2-.4.2-.5.2-.4.2-.4.2-.5.2-.5.1-.4.2-.5.2-.4.2-.5.1-.4.2-.5.1-.5.2-.4.1-.5.2-.5.1-.4.2h-.5l-.5.2-.4.1-.5.1-.5.1-.5.1-.5.1-.4.1-.5.1-.5.1h-.5l-.5.2h-.5l-.4.1-38.5 5 17 130.3-47.3 6.3L548 422l-.3-2-.3-2.5v-.6l-.2-1.1-.1-.8-.3-2.3-.6-4.7-.1-.8-1.9-14-.4-3-.1-1.5-.3-1.6-.7-6v-.2l-1-7-.5-3.7-.4-3.5-.3-2.4-.2-1.1-.4-3.4-.5-3.4-.3-2.7-.5-3.7v-.2l-29-221 47.4-6.1L574 253l38.5-5zM630 462H631.9l.2-.1H633l.3-.1h.6l.3-.1h.6l.4-.1h.6l.4-.1h.6l.4-.1h.7l.4-.1h.3l.4-.1h.4l.3-.1h.4l.4-.1h.8l.4-.1.4-.1h.4l.4-.1h.4l.7-.1.6-.2.6-.1.6-.3.7-.2.6-.3.6-.3.6-.3.6-.3.6-.4.6-.4.5-.5.6-.5.5-.5.6-.5.5-.6.5-.5.5-.6.5-.7.4-.6.5-.7.4-.7.4-.7.3-.8.4-.8.3-.7.3-.8.3-.9.2-.8.3-.9.1-.9.2-.9.1-.9.1-1 .1-.9v-4l-.2-1-3.6-27.3v-.8l-1.2-8.3-.3-2.4v-.4l-.8-6-.2-1.4-.2-1.6-.8-6v-.2l-1-7-.4-3.7-.5-3.5-.3-2.4-.2-1.1-.4-3.4-.4-3.4-.4-2.7-.5-3.7v-.2l-1.2-9.4-.3-1.6-.1-1.5-.3-2v-.4l-.1-.6-.5-3.3-4-30.8-.2-1-.1-1-.3-1-.2-1-.3-.9-.3-.9-.3-.9-.4-.8-.4-.8-.4-.9-.4-.7-.5-.8-.5-.7-.5-.7-.5-.7-.5-.6-.6-.7-.5-.6-.6-.5-.6-.6-.6-.5-.6-.5-.7-.4-.6-.5-.7-.4-.6-.4-.7-.3-.6-.3-.7-.3-.7-.3-.7-.2-.6-.2-.7-.1-.7-.2h-.6l-.7-.1H619.2l-.4.1-.4.1h-.4l-.4.1h-.4l-.4.1h-.4l-.3.1h-.4l-.4.1h-.4l-.3.2h-.7l-.4.1h-.3l-.4.1h-.3l-.3.1h-.4l-.3.1h-.3l-.3.1h-.3l-.4.1h-.3l-.3.1h-.3l-.2.1h-.3l-.3.1h-.3l-.3.1h-.2l-.3.1h-.2l-.3.1h-.3l-.2.1-28 3.7 6.5 49.9.4 3.4.2 1.6 1.3 9.4v.2l.5 3.7.3 2.7.1.9 1.3 9.4.4 3.5.5 3.6 1 7 .3 3.2.4 3.1 1.6 11.8 1 8.3.4 2.7.4 2.9.3 2.2.1.8 6.5 49.8L630 462z" id="b"/>
  </defs>
  <use xlink:href="#a" class="trashbin-body"/>
  <use xlink:href="#a" fill-opacity="0" stroke="#000" stroke-width="0"/>
  <g>
    <use xlink:href="#b" class="trashbin-body"/>
    <use xlink:href="#b" fill-opacity="0" stroke="red" stroke-width="0"/>
  </g>
</svg>
